X:501
T:Lord Saltoun
R:Reel
B:The Athole Collection
M:C|
L:1/8
K:A
c|eaga bagf|eagf fedc|B2Bc dBBc|dBfB bBfB|eaga bagf|eagf fedc|
ABcd efed|cAAB cAA||e|cAEC A,CEA|ceag fedc|B2Bc dBBc|
dBfB bBfB|cAEC A,CEA|ceag fedc|ABcd efed|cAAB cAA||

